X: 53
T: reel de Bergerville
O: trad Qu\'ebec
N: The parts are played in either order.
M: 4/4
K: D
"B7"B2 \
| "Em"e3e edef |     gfga "B7"b2B2 \
| "Em"e3e edef | "B7"gagf "Em"e2 :::|
|: "D7"d2 \
| "G"d2ed B2d2 | gfga b2d2 \
|1,3 d2ed B2d2 | gdBG "D7"A2 \
:|2,4 d2ed Bdgb | "D7"agfa "G"g2 :|

%%sep 1 1 500

